public/icons/reliably.svg

<svg width="24" height="24" viewBox="0 0 24 24" fill="none" xmlns="http://www.w3.org/2000/svg">
	<path d="M9.5 12.4L10.9286 14L14.5 10" stroke="#262626" stroke-width="1.5" stroke-linecap="round" stroke-linejoin="round"/>
	<path d="M3 10.4167C3 7.21907 3 5.62028 3.37752 5.08241C3.75503 4.54454 5.25832 4.02996 8.26491 3.00079L8.83772 2.80472C10.405 2.26824 11.1886 2 12 2C12.8114 2 13.595 2.26824 15.1623 2.80472L15.7351 3.00079C18.7417 4.02996 20.245 4.54454 20.6225 5.08241C21 5.62028 21 7.21907 21 10.4167C21 10.8996 21 11.4234 21 11.9914C21 14.4963 20.1632 16.4284 19 17.9041M3.19284 14C4.05026 18.2984 7.57641 20.5129 9.89856 21.5273C10.62 21.8424 10.9807 22 12 22C13.0193 22 13.38 21.8424 14.1014 21.5273C14.6796 21.2747 15.3324 20.9478 16 20.5328" stroke="#262626" stroke-width="1.5" stroke-linecap="round"/>
</svg>

<svg xmlns="http://www.w3.org/2000/svg" width="24" height="24" fill="none"><path stroke="#262626" stroke-linecap="round" stroke-linejoin="round" stroke-width="1.5" d="m9.5 12.4 1.429 1.6 3.571-4"/><path stroke="#262626" stroke-linecap="round" stroke-width="1.5" d="M3 10.417c0-3.198 0-4.797.378-5.335.377-.537 1.88-1.052 4.887-2.081l.573-.196C10.405 2.268 11.188 2 12 2c.811 0 1.595.268 3.162.805l.573.196c3.007 1.029 4.51 1.544 4.887 2.081C21 5.62 21 7.22 21 10.417v1.574c0 2.505-.837 4.437-2 5.913M3.193 14c.857 4.298 4.383 6.513 6.706 7.527.721.315 1.082.473 2.101.473 1.02 0 1.38-.158 2.101-.473.579-.252 1.231-.58 1.899-.994"/></svg>
